wp-content/uploads/2017/10/icon__like.svg

<svg viewBox="0 0 20 18.6" xmlns="http://www.w3.org/2000/svg"><g fill="#393939"><path d="m20 5.54c-.33-3.21-2.6-5.54-5.45-5.54a5.38 5.38 0 0 0 -4.61 2.66 5.18 5.18 0 0 0 -4.49-2.66c-2.85 0-5.13 2.33-5.45 5.54a5.76 5.76 0 0 0 .2 2.11 9 9 0 0 0 2.8 4.62l7 6.32 7-6.32a9 9 0 0 0 2.8-4.62 5.71 5.71 0 0 0 .2-2.11zm-1 1.94a8.27 8.27 0 0 1 -2.54 4.22l-6.52 5.86-6.45-5.86a8.28 8.28 0 0 1 -2.49-4.22 5 5 0 0 1 -.21-1.81c.21-2.86 2.21-4.9 4.66-4.9a4.51 4.51 0 0 1 4.14 2.89l.35.84.35-.84a4.65 4.65 0 0 1 4.26-2.89c2.44 0 4.4 2 4.65 4.89a5 5 0 0 1 -.2 1.82z"/><path d="m6.15 2.34a3.85 3.85 0 0 0 -3.84 3.85.38.38 0 0 0 .77 0 3.08 3.08 0 0 1 3.07-3.08.38.38 0 1 0 0-.77z"/></g></svg>

<svg xmlns="http://www.w3.org/2000/svg" viewBox="0 0 20 18.6"><title>Like</title><path d="M20,5.54C19.67,2.33,17.4,0,14.55,0A5.38,5.38,0,0,0,9.94,2.66,5.18,5.18,0,0,0,5.45,0C2.6,0,.32,2.33,0,5.54A5.76,5.76,0,0,0,.2,7.65,9,9,0,0,0,3,12.27l7,6.32L17,12.27A9,9,0,0,0,19.8,7.65,5.71,5.71,0,0,0,20,5.54ZM19,7.48a8.27,8.27,0,0,1-2.54,4.22L9.94,17.56,3.49,11.7A8.28,8.28,0,0,1,1,7.48,5,5,0,0,1,.79,5.67v0C1,2.81,3,.77,5.45.77A4.51,4.51,0,0,1,9.59,3.66l.35.84.35-.84A4.65,4.65,0,0,1,14.55.77c2.44,0,4.4,2,4.65,4.89A5,5,0,0,1,19,7.48Z" fill="#393939"/><path d="M6.15,2.34A3.85,3.85,0,0,0,2.31,6.19a.38.38,0,0,0,.77,0A3.08,3.08,0,0,1,6.15,3.11a.38.38,0,1,0,0-.77Z" fill="#393939"/></svg>
